Untapped.gg/logos/untappedgg-white.svg

<svg width="275" height="45" viewBox="0 0 275 45" fill="none" xmlns="http://www.w3.org/2000/svg">
<path d="M13.9514 10.144L23.7759 0L33.6004 10.144H27.6973V28.2044C27.6973 31.382 26.9939 33.697 25.587 35.1496C24.2095 36.5719 21.982 37.2831 18.9045 37.2831H8.79281C5.71532 37.2831 3.47316 36.5719 2.0663 35.1496C0.688774 33.697 0 31.382 0 28.2044V5.0537H7.91352V28.2044C7.91352 30.0201 8.79281 30.928 10.5514 30.928H17.146C18.9045 30.928 19.7838 30.0201 19.7838 28.2044V10.144H13.9514Z" fill="white"/>
<path d="M45.5027 18.8987C43.9494 18.8987 42.1908 19.2014 40.2271 19.8066V36.8292H32.5334V12.7706H39.3478L39.7874 15.0403C41.165 14.1021 42.5718 13.4212 44.008 12.9976C45.4734 12.5436 46.7044 12.3167 47.701 12.3167H49.6793C51.6724 12.3167 53.2697 12.937 54.4714 14.1778C55.6731 15.4186 56.2739 17.0679 56.2739 19.1257V36.8292H48.5802V20.4875C48.5802 20.0336 48.4337 19.6553 48.1406 19.3527C47.8475 19.05 47.4811 18.8987 47.0415 18.8987H45.5027Z" fill="white"/>
<path d="M68.1391 37.2831C70.8648 37.2831 73.6492 37.1318 76.4922 36.8292V30.928H70.7769C70.3373 30.928 69.9709 30.7767 69.6778 30.4741C69.3847 30.1715 69.2382 29.7932 69.2382 29.3392V18.8987H74.7337V12.7706H69.2382V7.32337H62.4237L61.5445 12.7706H58.9066V18.8987H61.5445V30.4741C61.5445 32.5319 62.1453 34.1812 63.347 35.422C64.5487 36.6627 66.146 37.2831 68.1391 37.2831Z" fill="white"/>
<path fill-rule="evenodd" clip-rule="evenodd" d="M79.829 13.2245C85.1926 12.6193 90.0287 12.3167 94.3371 12.3167C96.3302 12.3167 97.9275 12.937 99.1292 14.1778C100.331 15.4186 100.932 17.0679 100.932 19.1257V36.8292H94.1173L93.6777 34.5595C92.3001 35.4976 90.8786 36.1937 89.4132 36.6476C87.977 37.0713 86.7607 37.2831 85.7642 37.2831H84.2254C82.2324 37.2831 80.635 36.6627 79.4333 35.422C78.2317 34.1812 77.6308 32.5319 77.6308 30.4741V28.4314C77.6308 26.3735 78.2317 24.7242 79.4333 23.4835C80.635 22.2427 82.2324 21.6223 84.2254 21.6223H93.238V19.8066C93.238 19.3527 93.0915 18.9744 92.7984 18.6718C92.5053 18.3691 92.1389 18.2178 91.6993 18.2178C89.7942 18.2178 87.6839 18.3086 85.3685 18.4902C83.0824 18.6718 81.2359 18.8079 79.829 18.8987V13.2245ZM87.9624 30.928C89.5158 30.928 91.2743 30.6254 93.238 30.0201V27.2965H86.8633C86.4236 27.2965 86.0573 27.4478 85.7642 27.7505C85.4711 28.0531 85.3245 28.4314 85.3245 28.8853V29.3392C85.3245 29.7932 85.4711 30.1715 85.7642 30.4741C86.0573 30.7767 86.4236 30.928 86.8633 30.928H87.9624Z" fill="white"/>
<path fill-rule="evenodd" clip-rule="evenodd" d="M112.57 44.5461V36.8292H121.583C123.781 36.8292 125.496 36.1937 126.727 34.9226C127.987 33.6214 128.617 31.8359 128.617 29.5662V19.1257C128.617 17.0679 128.016 15.4186 126.815 14.1778C125.613 12.937 124.015 12.3167 122.022 12.3167H120.044C119.048 12.3167 117.817 12.5436 116.351 12.9976C114.915 13.4212 113.508 14.1021 112.131 15.0403L111.691 12.7706H104.876V44.5461H112.57ZM112.57 19.8066C114.534 19.2014 116.292 18.8987 117.846 18.8987H119.385C119.824 18.8987 120.191 19.05 120.484 19.3527C120.777 19.6553 120.923 20.0336 120.923 20.4875V28.8853C120.923 30.0958 120.337 30.701 119.165 30.701H112.57V19.8066Z" fill="white"/>
<path fill-rule="evenodd" clip-rule="evenodd" d="M140.262 36.8292V44.5461H132.569V12.7706H139.383L139.823 15.0403C141.2 14.1021 142.607 13.4212 144.043 12.9976C145.509 12.5436 146.74 12.3167 147.736 12.3167H149.715C151.708 12.3167 153.305 12.937 154.507 14.1778C155.708 15.4186 156.309 17.0679 156.309 19.1257V29.5662C156.309 31.8359 155.679 33.6214 154.419 34.9226C153.188 36.1937 151.473 36.8292 149.275 36.8292H140.262ZM145.538 18.8987C143.985 18.8987 142.226 19.2014 140.262 19.8066V30.701H146.857C148.029 30.701 148.616 30.0958 148.616 28.8853V20.4875C148.616 20.0336 148.469 19.6553 148.176 19.3527C147.883 19.05 147.516 18.8987 147.077 18.8987H145.538Z" fill="white"/>
<path fill-rule="evenodd" clip-rule="evenodd" d="M166.416 37.2831C171.017 37.2831 176.146 36.9805 181.803 36.3752V30.701C176.205 31.155 171.955 31.382 169.054 31.382C168.614 31.382 168.248 31.2306 167.955 30.928C167.661 30.6254 167.515 30.2471 167.515 29.7932V27.9774H182.682V19.5796C182.682 17.3099 182.052 15.5396 180.792 14.2686C179.561 12.9673 177.846 12.3167 175.648 12.3167H166.855C164.657 12.3167 162.928 12.9673 161.668 14.2686C160.437 15.5396 159.821 17.3099 159.821 19.5796V30.4741C159.821 32.5319 160.422 34.1812 161.624 35.422C162.825 36.6627 164.423 37.2831 166.416 37.2831ZM167.515 19.8066C167.515 18.5961 168.101 17.9909 169.273 17.9909H173.23C174.403 17.9909 174.989 18.5961 174.989 19.8066V22.3032H167.515V19.8066Z" fill="white"/>
<path fill-rule="evenodd" clip-rule="evenodd" d="M203.109 36.8292L202.669 34.5595C201.291 35.4976 199.87 36.1937 198.404 36.6476C196.968 37.0713 195.752 37.2831 194.755 37.2831H192.777C190.784 37.2831 189.187 36.6627 187.985 35.422C186.783 34.1812 186.182 32.5319 186.182 30.4741V20.0336C186.182 17.7639 186.798 15.9935 188.029 14.7225C189.289 13.4212 191.018 12.7706 193.217 12.7706H202.229V5.0537H209.923V36.8292H203.109ZM196.954 30.701C198.507 30.701 200.266 30.3984 202.229 29.7932V18.8987H195.635C194.462 18.8987 193.876 19.504 193.876 20.7145V29.1123C193.876 29.5662 194.023 29.9445 194.316 30.2471C194.609 30.5497 194.975 30.701 195.415 30.701H196.954Z" fill="white"/>
<path d="M221.348 30.0201H213.435V36.8292H221.348V30.0201Z" fill="white"/>
<path fill-rule="evenodd" clip-rule="evenodd" d="M240.043 35.0134C237.2 35.6187 234.709 35.9213 232.57 35.9213H231.031C229.038 35.9213 227.44 35.3009 226.239 34.0602C225.037 32.8194 224.436 31.1701 224.436 29.1123V20.0336C224.436 17.7639 225.052 15.9935 226.283 14.7225C227.543 13.4212 229.272 12.7706 231.47 12.7706H247.737V38.191C247.737 40.2488 247.136 41.8981 245.935 43.1389C244.733 44.3796 243.136 45 241.143 45C236.541 45 231.412 44.6974 225.755 44.0921V38.191C231.353 38.6449 235.603 38.8719 238.505 38.8719C238.944 38.8719 239.311 38.7206 239.604 38.4179C239.897 38.1153 240.043 37.737 240.043 37.2831V35.0134ZM234.768 29.7932C236.614 29.7932 238.373 29.6419 240.043 29.3392V18.8987H233.889C232.716 18.8987 232.13 19.504 232.13 20.7145V28.2044C232.13 28.6583 232.276 29.0366 232.57 29.3392C232.863 29.6419 233.229 29.7932 233.669 29.7932H234.768Z" fill="white"/>
<path fill-rule="evenodd" clip-rule="evenodd" d="M259.832 35.9213C261.972 35.9213 264.463 35.6187 267.306 35.0134V37.2831C267.306 37.737 267.16 38.1153 266.867 38.4179C266.574 38.7206 266.207 38.8719 265.768 38.8719C262.866 38.8719 258.616 38.6449 253.018 38.191V44.0921C258.675 44.6974 263.804 45 268.405 45C270.398 45 271.996 44.3796 273.197 43.1389C274.399 41.8981 275 40.2488 275 38.191V12.7706H258.733C256.535 12.7706 254.806 13.4212 253.546 14.7225C252.315 15.9935 251.699 17.7639 251.699 20.0336V29.1123C251.699 31.1701 252.3 32.8194 253.502 34.0602C254.703 35.3009 256.301 35.9213 258.294 35.9213H259.832ZM267.306 29.3392C265.636 29.6419 263.877 29.7932 262.031 29.7932H260.932C260.492 29.7932 260.126 29.6419 259.832 29.3392C259.539 29.0366 259.393 28.6583 259.393 28.2044V20.7145C259.393 19.504 259.979 18.8987 261.151 18.8987H267.306V29.3392Z" fill="white"/>
</svg>

<svg width="275" height="45" fill="none" xmlns="http://www.w3.org/2000/svg"><path d="M13.951 10.144L23.776 0 33.6 10.144h-5.903v18.06c0 3.178-.703 5.493-2.11 6.946-1.378 1.422-3.605 2.133-6.683 2.133H8.793c-3.078 0-5.32-.711-6.727-2.133C.69 33.697 0 31.382 0 28.204V5.054h7.914v23.15c0 1.816.879 2.724 2.637 2.724h6.595c1.758 0 2.638-.908 2.638-2.724v-18.06H13.95z" fill="#fff"/><path d="M45.503 18.899c-1.554 0-3.312.302-5.276.908v17.022h-7.694V12.771h6.815l.44 2.27c1.377-.939 2.784-1.62 4.22-2.043 1.465-.454 2.696-.681 3.693-.681h1.978c1.993 0 3.59.62 4.792 1.86 1.202 1.242 1.803 2.89 1.803 4.949v17.703H48.58V20.488c0-.454-.146-.833-.44-1.135a1.467 1.467 0 00-1.099-.454h-1.538zM68.14 37.283c2.725 0 5.51-.151 8.352-.454v-5.901h-5.715c-.44 0-.806-.151-1.1-.454-.292-.302-.439-.68-.439-1.135V18.9h5.496V12.77h-5.496V7.323h-6.814l-.88 5.448h-2.637v6.128h2.638v11.575c0 2.058.6 3.707 1.802 4.948 1.202 1.24 2.799 1.861 4.792 1.861z" fill="#fff"/><path fill-rule="evenodd" clip-rule="evenodd" d="M79.829 13.225c5.364-.606 10.2-.908 14.508-.908 1.993 0 3.59.62 4.792 1.86 1.202 1.242 1.803 2.89 1.803 4.949v17.703h-6.815l-.44-2.27c-1.377.939-2.798 1.635-4.264 2.089-1.436.423-2.652.635-3.649.635h-1.539c-1.993 0-3.59-.62-4.792-1.861-1.201-1.24-1.802-2.89-1.802-4.948v-2.043c0-2.058.6-3.707 1.802-4.948 1.202-1.24 2.8-1.86 4.792-1.86h9.013v-1.816c0-.454-.147-.833-.44-1.135a1.467 1.467 0 00-1.099-.454c-1.905 0-4.015.09-6.33.272-2.287.182-4.133.318-5.54.409v-5.675zm8.133 17.703c1.554 0 3.312-.303 5.276-.908v-2.723h-6.375c-.44 0-.806.15-1.099.453-.293.303-.44.681-.44 1.135v.454c0 .454.147.833.44 1.135.293.303.66.454 1.1.454h1.098zM112.57 44.546V36.83h9.013c2.198 0 3.913-.635 5.144-1.906 1.26-1.302 1.89-3.087 1.89-5.357v-10.44c0-2.058-.601-3.707-1.802-4.948-1.202-1.241-2.8-1.861-4.793-1.861h-1.978c-.996 0-2.227.227-3.693.68-1.436.424-2.843 1.105-4.22 2.043l-.44-2.27h-6.815v31.776h7.694zm0-24.74c1.964-.605 3.722-.907 5.276-.907h1.539c.439 0 .806.151 1.099.454.293.302.439.68.439 1.134v8.398c0 1.21-.586 1.816-1.758 1.816h-6.595V19.807zM140.262 36.83v7.716h-7.693V12.771h6.814l.44 2.27c1.377-.939 2.784-1.62 4.22-2.043 1.466-.454 2.697-.681 3.693-.681h1.979c1.993 0 3.59.62 4.792 1.86 1.201 1.242 1.802 2.89 1.802 4.949v10.44c0 2.27-.63 4.055-1.89 5.357-1.231 1.27-2.946 1.906-5.144 1.906h-9.013zm5.276-17.931c-1.553 0-3.312.302-5.276.908V30.7h6.595c1.172 0 1.759-.605 1.759-1.816v-8.398c0-.453-.147-.832-.44-1.134a1.467 1.467 0 00-1.099-.454h-1.539zM166.416 37.283c4.601 0 9.73-.303 15.387-.908v-5.674c-5.598.454-9.848.681-12.749.681-.44 0-.806-.151-1.099-.454-.294-.303-.44-.68-.44-1.135v-1.816h15.167V19.58c0-2.27-.63-4.04-1.89-5.311-1.231-1.302-2.946-1.952-5.144-1.952h-8.793c-2.198 0-3.927.65-5.187 1.952-1.231 1.27-1.847 3.04-1.847 5.31v10.895c0 2.058.601 3.707 1.803 4.948 1.201 1.24 2.799 1.861 4.792 1.861zm1.099-17.476c0-1.21.586-1.816 1.758-1.816h3.957c1.173 0 1.759.605 1.759 1.816v2.496h-7.474v-2.496zM203.109 36.83l-.44-2.27c-1.378.938-2.799 1.634-4.265 2.088-1.436.423-2.652.635-3.649.635h-1.978c-1.993 0-3.59-.62-4.792-1.861-1.202-1.24-1.803-2.89-1.803-4.948v-10.44c0-2.27.616-4.04 1.847-5.311 1.26-1.302 2.989-1.952 5.188-1.952h9.012V5.054h7.694v31.775h-6.814zm-6.155-6.129c1.553 0 3.312-.303 5.275-.908V18.9h-6.594c-1.173 0-1.759.605-1.759 1.816v8.397c0 .454.147.833.44 1.135.293.303.659.454 1.099.454h1.539z" fill="#fff"/><path d="M221.348 30.02h-7.913v6.81h7.913v-6.81z" fill="#fff"/><path fill-rule="evenodd" clip-rule="evenodd" d="M240.043 35.013c-2.843.606-5.334.908-7.473.908h-1.539c-1.993 0-3.591-.62-4.792-1.86-1.202-1.242-1.803-2.89-1.803-4.949v-9.078c0-2.27.616-4.04 1.847-5.311 1.26-1.302 2.989-1.952 5.187-1.952h16.267v25.42c0 2.058-.601 3.707-1.802 4.948-1.202 1.24-2.799 1.861-4.792 1.861-4.602 0-9.731-.303-15.388-.908v-5.901c5.598.454 9.848.68 12.75.68.439 0 .806-.15 1.099-.453.293-.303.439-.681.439-1.135v-2.27zm-5.275-5.22c1.846 0 3.605-.151 5.275-.454V18.9h-6.154c-1.173 0-1.759.605-1.759 1.816v7.49c0 .453.146.832.44 1.134.293.303.659.454 1.099.454h1.099zM259.832 35.921c2.14 0 4.631-.302 7.474-.908v2.27c0 .454-.146.832-.439 1.135-.293.303-.66.454-1.099.454-2.902 0-7.152-.227-12.75-.681v5.901c5.657.605 10.786.908 15.387.908 1.993 0 3.591-.62 4.792-1.861 1.202-1.24 1.803-2.89 1.803-4.948v-25.42h-16.267c-2.198 0-3.927.65-5.187 1.951-1.231 1.271-1.847 3.042-1.847 5.312v9.078c0 2.058.601 3.707 1.803 4.948 1.201 1.24 2.799 1.861 4.792 1.861h1.538zm7.474-6.582c-1.67.303-3.429.454-5.275.454h-1.099a1.47 1.47 0 01-1.1-.454c-.293-.302-.439-.68-.439-1.135v-7.49c0-1.21.586-1.815 1.758-1.815h6.155v10.44z" fill="#fff"/></svg>
